X:1
T:Fontana, 87.87.88.87
T:Fontana, 87.87.88.87
T:Daniel Brink Towner, 1909
T:Public Domain Courtesy of the Cyber Hymnal™
C:Daniel Brink Towner, 1909
Z:Public Domain
Z:Courtesy of the Cyber Hymnal™
%%score 1 ( 2 3 )
L:1/8
Q:1/4=96
M:3/4
K:Bb
V:1 treble 
V:2 bass 
V:3 bass 
V:1
 [B,D]>[CE] | [DF]3 [Fd] [Ec]>[Fd] | [DB]2 [B,D]2 [DF]>[DB] | [EA]3 [CE] [FA]>[EG] | %4
 [DF]4 [B,D]>[CE] | [DF]3 [Fd] [Ec]>[Fd] | [DB]2 [B,D]2 [DF]>[DB] | [EA]3 [EF] [EA]>[Ec] | %8
 [DB]4 [DB]>[DB] | [GB]3 [Gc] [GB]>[EG] | [DF]2 [B,D]2 [DF]>[DB] | [EA]3 [Ec] [EG]>[EA] | %12
 [EG]2 [DF]2 [DB]>[DB] | [GB]3 [Gc] [GB]>[EG] | [DF]2 [DB]2 [Fd]>[_Ad] | [Ge]3 [Ec] [EA]>[EF] | %16
 [DB]4 |] %17
V:2
 z2 | (3(B,,D,F, B,2) z2 | (3(B,,D,F, B,2) z2 | (3(F,,A,,C, F,2) z2 | (3(B,,D,F, B,,2) z2 | %5
 (3(B,,D,F, B,2) z2 | (3(B,,D,F, B,2) z2 | (3(F,,A,,C, F,2) z2 | (3(B,,D,F, B,,2) [B,,F,]>[B,,F,] | %9
 E,3 E, E,>[E,B,] | [B,,B,]2 [B,,F,]2 [B,,B,]>[B,,B,] | [F,C]3 [F,A,] [F,A,]>[F,C] | %12
 [B,,B,]2 [B,,B,]2 [B,,F,]>[B,,F,] | E,3 E, E,>[E,B,] | [B,,B,]2 [B,,F,]2 [B,,B,]>[B,,B,] | %15
 [E,B,]3 [E,G,] F,>F, | [B,,F,]4 |] %17
V:3
 x2 | x6 | x6 | x6 | x6 | x6 | x6 | x6 | x6 | E,3 E, E,3/2 x/ | x6 | x6 | x6 | E,3 E, E,3/2 x/ | %14
 x6 | x4 F,>F, | x4 |] %17

